icons/uEA38-enveloppe_full.svg

<?xml version="1.0" encoding="UTF-8"?>
<svg width="32px" height="32px" viewBox="0 0 32 32" version="1.1" xmlns="http://www.w3.org/2000/svg" xmlns:xlink="http://www.w3.org/1999/xlink">
    <title>enveloppe-full</title>
    <defs></defs>
    <g id="Page-1" stroke="none" stroke-width="1" fill="none" fill-rule="evenodd">
        <g id="enveloppe-full" fill="#434C5C">
            <path d="M30.8299963,3.0298226 L15.8199494,19.9690593 L1.07990337,3.0596452 C1.18990372,3.01988173 1.30990409,3 1.42990447,3 L30.5699955,3 C30.6599958,3 30.7399961,3.00994087 30.8299963,3.0298226 Z M10.8100338,15.7542313 L0.220000688,28.0411425 C0.0700002188,27.7727391 -1.77635684e-15,27.4745131 -1.77635684e-15,27.1663462 L-1.77635684e-15,4.68010587 C-1.77635684e-15,4.3122938 0.100000313,3.97430434 0.280000875,3.68601921 L10.8100338,15.7542313 Z M30.9899968,28.7666269 C30.8599964,28.8163312 30.709996,28.8461538 30.5699955,28.8461538 L1.42990447,28.8461538 C1.279904,28.8461538 1.13990356,28.8163312 0.999903125,28.756686 L11.509936,16.5592427 L15.8099494,21.4899125 L20.3599636,16.3604254 L30.9899968,28.7666269 Z M32,4.67990705 L32,27.1661474 C32,27.5041369 31.9099997,27.8321854 31.7399992,28.1105297 L21.0199657,15.6148604 L31.6599989,3.61623432 C31.8899997,3.91446032 32,4.28227239 32,4.67990705 Z" id="Combined-Shape"></path>
        </g>
    </g>
</svg>

<svg width="32" height="32" xmlns="http://www.w3.org/2000/svg"><path d="M30.83 3.03L15.82 19.97 1.08 3.06c.11-.04.23-.06.35-.06h29.14c.09 0 .17.01.26.03zM10.81 15.754L.22 28.041a1.777 1.777 0 0 1-.22-.875V4.68c0-.368.1-.706.28-.994l10.53 12.068zm20.18 13.013c-.13.05-.28.08-.42.08H1.43c-.15 0-.29-.03-.43-.09l10.51-12.198 4.3 4.93 4.55-5.129 10.63 12.407zM32 4.68v22.486c0 .338-.09.666-.26.945L21.02 15.615 31.66 3.616c.23.298.34.666.34 1.064z" fill="#434C5C" fill-rule="evenodd"/></svg>
